svgs/light/door-open.svg

<svg xmlns="http://www.w3.org/2000/svg" viewBox="0 0 576 512"><!-- Font Awesome Pro 6.0.0-alpha2 by @fontawesome - https://fontawesome.com License - https://fontawesome.com/license (Commercial License) --><path d="M232 224.004C218.746 224.004 208 238.33 208 256.002S218.746 288.002 232 288.002S256 273.674 256 256.002S245.254 224.004 232 224.004ZM260.375 1.443L100.375 41.443C78.998 46.787 64 65.996 64 88.031V480H16C7.164 480 0 487.162 0 496C0 504.836 7.164 512 16 512H288C305.674 512 320 497.672 320 480V49.148C320 39.004 317.389 28.805 311.477 20.559C299.393 3.707 279.264 -3.279 260.375 1.443ZM288 480H96V88.035C96 80.662 101 74.287 108.125 72.506L268.125 32.506C272.875 31.225 277.938 32.381 281.844 35.412C285.75 38.475 288 43.068 288 48.037V480ZM560 480H512V144.004C512 99.822 476.184 64.006 432.002 64.006H368C359.164 64.006 352 71.168 352 80.004V80.006C352 88.842 359.164 96.004 368 96.004H432C458.51 96.004 480 117.494 480 144.004V480C480 497.672 494.326 512 512 512H560C568.836 512 576 504.836 576 496C576 487.162 568.836 480 560 480Z"/></svg>

<svg xmlns="http://www.w3.org/2000/svg" viewBox="0 0 576 512"><!--! Font Awesome Pro 6.3.0 by @fontawesome - https://fontawesome.com License - https://fontawesome.com/license (Commercial License) Copyright 2023 Fonticons, Inc. --><path d="M232 224c-13.25 0-24 14.33-24 31.1S218.7 288 232 288S256 273.7 256 256S245.3 224 232 224zM260.4 1.443l-160 40C78.1 46.79 64 65.1 64 88.03V480H16C7.164 480 0 487.2 0 496C0 504.8 7.164 512 16 512H288c17.67 0 32-14.33 32-32V49.15c0-10.14-2.611-20.34-8.523-28.59C299.4 3.707 279.3-3.279 260.4 1.443zM288 480H96V88.04c0-7.373 5-13.75 12.12-15.53l160-40C272.9 31.22 277.9 32.38 281.8 35.41C285.8 38.47 288 43.07 288 48.04V480zM560 480H512V144c0-44.18-35.82-79.1-79.1-79.1H368c-8.836 0-16 7.162-16 15.1s7.164 16 16 16h64c26.51 0 48 21.49 48 48V480c0 17.67 14.33 32 32 32h48c8.836 0 16-7.164 16-15.1C576 487.2 568.8 480 560 480z"/></svg>
